X:1
T:91contrapuntoProlon­gado
T:
I:linebreak !
L:1/4
K:Cmaj
V:1 clef=treble
A4 |B4 |c4|f4|d4|e4|d4|c4|B4|A4|
V:2 clef=treble
z CDE |D C B,A,|G,GAG|AGFG AGFA|Gedc|BAcB|AFED|EDCB,|C4|
V:3 clef=bass
A,,2 F,2|G,2F,2|E,2C,2|D,2E,2|F,2D,2| G,2 C,2|D,2 E,2 |F,2 A,2 |^G,4 |A,4|
W:En el contrapunto a dos partes, ya pudimos observar dos de dichas ela­
W:boraciones de la disonancia: en la tercera especie, cuando la bordadura superior y ta infe­
W:rior .fueron combinadas, y en la quinta especie, eón el uso de la negra sobre
W:el segundo tiempo de una sincopación disonante. En cada caso el oído
W:esperaba comprender el uso de la disonancia, no sobre la base _de su. in­
W:mediata continuación, sino de su más larga conexión. Estos ejemplos mues­
W:tran los primeros génnenes de l a prolongación contrapuotistica.
W:Ahora, en las especies combinadas, existen ejemplos adicionales de usos
W:prolongadós de la di s ona n ci a que hacen de este procedimiento el verdade­
W:ro p un t o de partida de lo que más adelante se llamará contrapunto prolon­
W:gado. Sin embargo, todas las prolongaciones de las especies combinadas
W:serán comprensibles desde el punto de vista de l a .conducción de la voz y
W:sólo en esos términos. Aquí, como en casos precedentes, cada voz se con­
W:sidera en su relación con el bajo y con el cantus firmus, y cada voz estará
W:gobernada por los mismos principios que han regido hasta ahora.